static/assets/images/tokens/stbt.svg

<svg width="256" height="256" viewBox="0 0 256 256" fill="none" xmlns="http://www.w3.org/2000/svg">
<path fill-rule="evenodd" clip-rule="evenodd" d="M256 128C256 198.692 198.692 256 128 256C57.3075 256 0 198.692 0 128C0 57.3075 57.3075 0 128 0C198.692 0 256 57.3075 256 128ZM227.084 136.413C230.524 99.3154 212.408 63.8914 181.089 43.9375C156.846 28.4842 130.561 24.6328 102.232 32.383C46.0876 47.7517 15.1434 106.589 35.0557 161.5C49.0612 200.12 85.1407 225.815 126.183 226.962C178.318 228.423 222.324 187.886 227.084 136.413ZM106.606 106.518C92.7423 110.728 83.6995 115.415 84.6637 131.909C85.002 137.671 87.6272 141.479 92.5393 143.332C102.282 147.014 109.711 140.126 113.862 131.869C115.185 129.239 116.534 126.365 117.93 123.393C122.392 113.891 127.328 103.379 133.389 96.5866C148.49 79.6658 174.573 82.2831 187.33 99.9748C190.359 104.18 192.198 109.829 193.919 115.117C194.17 115.888 194.419 116.652 194.668 117.403C194.797 117.788 195.067 117.981 195.48 117.981L205.487 117.94C205.981 117.94 206.204 117.69 206.157 117.19C205.067 105.618 201.37 94.9838 195.064 85.2858C165.622 40.0014 103.328 36.1567 67.9991 76.3486C58.0396 87.6832 52.0924 101.331 50.1573 117.291C50.1032 117.724 50.2926 117.94 50.7256 117.94L63.0261 117.93C63.3915 117.93 63.6114 117.751 63.6858 117.393C67.5526 98.7372 78.9701 82.9222 98.8215 80.0615C99.1382 80.0157 99.4607 80.0874 99.7281 80.2631C99.9955 80.4388 100.189 80.7063 100.273 81.015L106.991 105.828C107.086 106.18 106.958 106.41 106.606 106.518ZM152.246 143.291C158.233 142.256 162.729 141.097 165.733 139.812C174.035 136.251 179.282 123.662 171.945 116.48C165.845 110.515 156.396 113.112 151.606 119.584C149.603 122.289 147.919 125.177 146.552 128.247C145.687 130.19 144.835 132.188 143.972 134.211C136.718 151.207 128.736 169.911 106.951 171.797C99.4067 172.453 92.1367 171.191 85.1407 168.013C71.0438 161.622 66.7711 150.849 63.1784 136.819C63.1441 136.675 63.0613 136.546 62.9435 136.454C62.8256 136.362 62.6795 136.312 62.5289 136.312H50.3806C50.0626 136.312 49.9171 136.474 49.9442 136.799C54.7142 187.805 108.209 219.465 155.666 202.027C181.119 192.674 206.319 165.599 205.893 136.819C205.886 136.481 205.714 136.312 205.375 136.312H195.977C195.612 136.312 195.358 136.481 195.216 136.819C188.244 153.405 178.785 170.235 158.132 169.737C157.923 169.731 157.723 169.656 157.563 169.523C157.402 169.391 157.292 169.209 157.249 169.007L151.738 144.052C151.643 143.626 151.812 143.372 152.246 143.291Z" fill="#2F3058"/>
<path fill-rule="evenodd" clip-rule="evenodd" d="M181.089 43.9375C212.408 63.8914 230.524 99.3154 227.084 136.413C222.324 187.886 178.318 228.423 126.183 226.962C85.1407 225.815 49.0612 200.12 35.0557 161.5C15.1434 106.589 46.0876 47.7517 102.232 32.383C130.561 24.6328 156.846 28.4842 181.089 43.9375ZM84.6637 131.909C83.6995 115.415 92.7423 110.728 106.606 106.518C106.958 106.41 107.086 106.18 106.991 105.828L100.273 81.015C100.189 80.7063 99.9955 80.4388 99.7281 80.2631C99.4607 80.0874 99.1382 80.0157 98.8215 80.0615C78.9701 82.9222 67.5526 98.7372 63.6858 117.393C63.6114 117.751 63.3915 117.93 63.0261 117.93L50.7256 117.94C50.2926 117.94 50.1032 117.724 50.1573 117.291C52.0924 101.331 58.0396 87.6832 67.9991 76.3486C103.328 36.1567 165.622 40.0014 195.064 85.2858C201.37 94.9838 205.067 105.618 206.157 117.19C206.204 117.69 205.981 117.94 205.487 117.94L195.48 117.981C195.067 117.981 194.797 117.788 194.668 117.403C194.419 116.652 194.17 115.888 193.919 115.117C192.198 109.829 190.359 104.18 187.33 99.9748C174.573 82.2831 148.49 79.6658 133.389 96.5866C127.328 103.379 122.392 113.891 117.93 123.393C116.534 126.365 115.185 129.239 113.862 131.869C109.711 140.126 102.282 147.014 92.5393 143.332C87.6272 141.479 85.002 137.671 84.6637 131.909ZM165.733 139.812C162.729 141.097 158.233 142.256 152.246 143.291C151.812 143.372 151.643 143.626 151.738 144.052L157.249 169.007C157.292 169.209 157.402 169.391 157.563 169.523C157.723 169.656 157.923 169.731 158.132 169.737C178.785 170.235 188.244 153.405 195.216 136.819C195.358 136.481 195.612 136.312 195.977 136.312H205.375C205.714 136.312 205.886 136.481 205.893 136.819C206.319 165.599 181.119 192.674 155.666 202.027C108.209 219.465 54.7142 187.805 49.9442 136.799C49.9171 136.474 50.0626 136.312 50.3806 136.312H62.5289C62.6795 136.312 62.8256 136.362 62.9435 136.454C63.0613 136.546 63.1441 136.675 63.1784 136.819C66.7711 150.849 71.0438 161.622 85.1407 168.013C92.1367 171.191 99.4067 172.453 106.951 171.797C128.736 169.911 136.718 151.207 143.972 134.211C144.835 132.188 145.687 130.19 146.552 128.247C147.919 125.177 149.603 122.289 151.606 119.584C156.396 113.112 165.845 110.515 171.945 116.48C179.282 123.662 174.035 136.251 165.733 139.812Z" fill="white"/>
</svg>

<svg xmlns="http://www.w3.org/2000/svg" fill="none" viewBox="0 0 256 256"><path fill="#2F3058" fill-rule="evenodd" d="M256 128c0 70.692-57.308 128-128 128S0 198.692 0 128 57.308 0 128 0s128 57.308 128 128m-28.916 8.413c3.44-37.098-14.676-72.522-45.995-92.476q-36.364-23.18-78.857-11.554C46.088 47.752 15.143 106.589 35.056 161.5c14.005 38.62 50.085 64.315 91.127 65.462 52.135 1.461 96.141-39.076 100.901-90.549m-120.478-29.895c-13.864 4.21-22.906 8.897-21.942 25.391q.507 8.643 7.875 11.423c9.743 3.682 17.172-3.206 21.323-11.463 1.323-2.63 2.672-5.504 4.068-8.476 4.462-9.502 9.398-20.014 15.459-26.806 15.101-16.921 41.184-14.304 53.941 3.388 3.029 4.205 4.868 9.854 6.589 15.142q.376 1.158.749 2.286.193.578.812.578l10.007-.041q.74 0 .67-.75-1.635-17.357-11.093-31.904C165.622 40 103.328 36.156 67.999 76.349Q53.06 93.35 50.157 117.29q-.08.65.569.649l12.3-.01q.548 0 .66-.537c3.867-18.656 15.284-34.47 35.136-37.332a1.31 1.31 0 0 1 1.451.954l6.718 24.813q.143.528-.385.69m45.64 36.773q8.98-1.552 13.487-3.479c8.302-3.561 13.549-16.15 6.212-23.332-6.1-5.965-15.549-3.368-20.339 3.104a46 46 0 0 0-5.054 8.663c-.865 1.943-1.717 3.941-2.58 5.964-7.254 16.996-15.236 35.7-37.021 37.586q-11.316.983-21.81-3.784c-14.097-6.391-18.37-17.164-21.963-31.194a.66.66 0 0 0-.234-.365.67.67 0 0 0-.415-.142H50.38q-.477 0-.437.487c4.77 51.006 58.265 82.666 105.722 65.228 25.453-9.353 50.653-36.428 50.227-65.208q-.01-.507-.518-.507h-9.398q-.548 0-.761.507c-6.972 16.586-16.431 33.416-37.084 32.918a.93.93 0 0 1-.883-.73l-5.511-24.955q-.143-.64.508-.761" clip-rule="evenodd"/><path fill="#fff" fill-rule="evenodd" d="M181.089 43.938c31.319 19.953 49.435 55.377 45.995 92.475-4.76 51.473-48.766 92.01-100.901 90.549-41.042-1.147-77.122-26.842-91.127-65.462-19.913-54.911 11.032-113.748 67.176-129.117q42.493-11.625 78.857 11.554m-96.425 87.971c-.965-16.494 8.078-21.181 21.942-25.391q.528-.162.385-.69l-6.718-24.813a1.31 1.31 0 0 0-1.451-.954c-19.852 2.861-31.27 18.676-35.136 37.332q-.112.537-.66.537l-12.3.01q-.65 0-.569-.649Q53.06 93.351 68 76.349C103.328 36.157 165.622 40 195.064 85.286q9.459 14.547 11.093 31.904.07.75-.67.75l-10.007.041q-.619 0-.812-.578-.373-1.128-.749-2.286c-1.721-5.288-3.56-10.937-6.589-15.142-12.757-17.692-38.84-20.31-53.941-3.388-6.061 6.792-10.997 17.304-15.459 26.806-1.396 2.972-2.745 5.846-4.068 8.476-4.151 8.257-11.58 15.145-21.323 11.463q-7.368-2.78-7.875-11.423m81.069 7.903q-4.506 1.927-13.487 3.479-.65.122-.508.761l5.511 24.955a.93.93 0 0 0 .883.73c20.653.498 30.112-16.332 37.084-32.918q.213-.507.761-.507h9.398q.508 0 .518.507c.426 28.78-24.774 55.855-50.227 65.208-47.457 17.438-100.952-14.222-105.722-65.228q-.04-.487.437-.487h12.148c.15 0 .297.05.414.142a.65.65 0 0 1 .235.365c3.593 14.03 7.866 24.803 21.963 31.194q10.494 4.767 21.81 3.784c21.785-1.886 29.767-20.59 37.021-37.586.863-2.023 1.715-4.021 2.58-5.964a46 46 0 0 1 5.054-8.663c4.79-6.472 14.239-9.069 20.339-3.104 7.337 7.182 2.09 19.771-6.212 23.332" clip-rule="evenodd"/></svg>
